X:1
T:Title
%%score ( 1 2 ) { 3 | 4 }
L:1/8
Q:1/4=110
M:4/4
K:Eb
V:1 treble nm="Grand Piano, Soprano"
V:2 treble 
V:3 bass nm="Choir Pad, Bass"
V:4 bass 
V:1
 [EG]2 [EF]2 [EA]2 [EG]2 | [DF]2 E6 | [B,F]2 [B,G]2 [B,F]2 [B,G]2 | z2 B6 | %4
w: By~Henry~James~Ernest~Holmes,~ca.~1902 * * *||||
 [FB]2 [GB]2 [Be]2 [Ae]2 | [Ad]2 [Gd]2 [Gc]2 [FB]2 | [FA]2 [EG]2 [EF]2 [EG]2 | [DF]2 E6- | %8
w: ||||
 E2 z2 z4 |] %9
w: |
V:2
 x8 | x8 | x8 | [E=A]2 E4 D2 | x8 | x8 | x8 | x8 | x8 |] %9
V:3
 B,2 C2 C2 B,2 | A,2 G,6 | F,2 E,2 F,2 E,2 | F,2 F,6 | D2 E2 B,2 C2 | D2 E2[K:bass] G,2 B,2 | %6
 B,2 B,2 =A,2 B,2 | A,2 G,6- | G,2 z2 z4 |] %9
V:4
 E,2 A,,2 A,,2 B,,2 | =B,,2 C,6 | D,2 z2 D,2 z2 | C,2 B,,6 | A,2 G,2 G,2 F,2 | F,2 E,2 E,2 D,2 | %6
 D,2 E,2 C,2 B,,2 | B,,2 E,6- | E,2 z2 z4 |] %9

